X:1
T:Tag!
M:C|
L:1/16
K:D
   D3F1d1A3 B3A1G3F1 | G1B3e3d1 c3A1E1C3 | D3F1d3A1 B3A1G1F3 | (3B2c2d2 (3c2d2e2 f1d3 d2 ||
D2 | F1d3A3B1 A1G3F1G3 | B3e1d1c3 A3E1C1D3 | F1d3A1B3 A3G1F3G1 | B1g3 fedc d4 |]

